X:1
T:Title
%%score { 1 | 2 }
L:1/8
M:6/8
K:Eb
V:1 treble nm="Grand Piano"
V:2 bass 
V:1
 z3 z2[Q:1/4=100] G | G2 G G>FG | [GB]3 [EG]2 [EG] | [DF]2 [DF] [GB]>[FA][DF] |[M:5/8] G- G3 z | %5
[M:1/8] G |[M:3/4] G2 GG- G/F/G | B3 G2 G |[M:13/16] F-<FB=Ad3/2c |[M:5/8] [DB]- [DB]3 z | %10
[M:1/8] B |[M:3/4] d2 cA- A/G/A | [Ac]3 [GB]2 [B,EG] | [=B,FG]2 [B,FA][B,FG]- [B,FG]/[B,D]/[B,DF] | %14
[M:5/8] [CE]- [CE]3 z |[M:1/8] [G,_DE] |[M:3/4] [CE]2 [CE][EA]- [EA]/B/c | B3 G2 B | %18
 [DB][DF] [EG][FA]/[Ac]/- [Ac][DB] |[M:5/8] G- G3 z |[M:1/8] E |[M:3/4] E2 EA- A/B/c | %22
 [GB]3 [EG]2 [EB] | [DB][DF] [_DG][=DA]/[B,D]/- [B,D][DF][Q:1/4=94][Q:1/4=88][Q:1/4=81] | %24
[M:5/8] E- E3 z |] %25
V:2
 z3 z2 [E,B,E] | [E,B,E]2 [E,CE] [E,B,E]>[E,B,D][E,B,E] | [E,E]3 [E,B,]2 [E,B,] | %3
 [B,,B,]2 [B,,B,] [B,,B,]>[B,,B,][B,,A,] |[M:5/8] [E,G,E]- [E,G,E]3 z |[M:1/8] [E,B,E] | %6
[M:3/4] [E,B,E]2 [E,CE][E,B,E]- [E,B,E]/[A,B,D]/[G,B,E] | [F,A,D]3 [E,B,E]2 [=E,B,_D] | %8
[M:13/16] [F,B,D]-<[F,B,D][F,B,D][F,CE][F,G,F]3/2[F,=A,E] |[M:5/8] [B,,B,]- [B,,B,]3 z | %10
[M:1/8][K:treble] [B,DF] |[M:3/4] [B,FA]2 [B,EA][B,DF]- [B,DF]/[B,D=E]/[B,DF] | [E,E]3 [E,E]2 E, | %13
 D,2 D,G,,- G,,/G,,/G,, |[M:5/8] C,- C,3 z |[M:1/8] B,, | %16
[M:3/4] [A,,A,]2 [A,,A,][C,A,]- [C,A,]/[E,G,E]/[A,E] | [G,B,E]3 [E,B,E]2 [E,G,E] | %18
 [B,,F,][B,,B,] [B,,B,][B,,B,]/[B,,B,]/- [B,,B,][B,,B,] |[M:5/8] [E,B,E]- [E,B,E]3 z | %20
[M:1/8][K:treble] [G,B,_D] |[M:3/4] [A,C]2 [A,C][CE]- [CE]/[B,DF]/[A,E_G] | [E,E]3 [E,B,]2 [E,G,] | %23
 [B,,F,][B,,F,] [B,,=E,][B,,F,]/[B,,F,]/- [B,,F,][B,,A,B,] |[M:5/8] [E,G,]- [E,G,]3 z |] %25

